icons/snowmobile.svg

<?xml version="1.0" encoding="UTF-8"?>
<svg height="15" viewBox="0 0 15 15" width="15" xmlns="http://www.w3.org/2000/svg" id="snowmobile">
  <g>
    <path d="m15 10c0 .2652-.1054.5196-.2929.7071s-.4419.2929-.7071.2929h-4.58582c-.26522 0-.51957-.1054-.7071-.2929l-1.5611-1.5611c-.04629-.04629-.10124-.08301-.16173-.10807-.06048-.02505-.1253-.03794-.19077-.03793h-3.4592c-.21692-.00001-.42799-.0704-.6015-.2006l-1.3471-1.0106c-.11933-.09414-.21595-.21391-.28272-.35046-.06676-.13654-.10196-.28635-.10298-.43834.00037-.16926.0439-.33563.12647-.48338.08257-.14776.20146-.27201.34543-.36102l3.5281-2.1556 1.0385-1.6924c.04448-.10668.12454-.19466.22656-.24896.10203-.05431.21971-.0716.33305-.04892.11333.02268.21531.08392.28858.17331.07327.08938.11331.20139.11331.31697v3.5l1 1h1l5.41152-.9922c.1142-.02062.232-.00087.3333.05587.1012.05673.1795.14692.2216.2551.042.10818.0451.22761.0087.33781-.0364.11021-.1099.20433-.2081.26622l-1.767 1.0772 1.6313 1.2243c.1157.09331.209.2115.2728.34579.0639.13429.0966.28123.0959.42991zm-9.50002 0h-2.2753c-.50324-.00006-.9984-.12656-1.44-.3679l-1.0447-.5709c-.116363-.06365-.253247-.07847-.380537-.0412-.12729.03728-.234561.12359-.2982126.23995-.06365194.11636-.0784716.25325-.0411987.38054.0372728.12729.1235853.23456.2399483.29821l1.2687.6934c.44168.2414.93696.3679 1.4403.3679h2.531c.13261 0 .25979-.0527.35355-.1464.09377-.0938.14645-.221.14645-.3536s-.05268-.2598-.14645-.3536c-.09376-.0937-.22094-.1464-.35355-.1464z"/>
  </g>
</svg>

<?xml version="1.0" encoding="UTF-8"?>
<svg width="15" height="15" viewBox="0 0 15 15" xmlns="http://www.w3.org/2000/svg" id="snowmobile">
  <path d="M15 10a1 1 0 0 1-1 1H9.414a1 1 0 0 1-.707-.293L7.146 9.146A.499.499 0 0 0 6.793 9H3.334a1 1 0 0 1-.601-.2L1.386 7.788A1.013 1.013 0 0 1 1 7a.995.995 0 0 1 .472-.844L5 4l1.038-1.692A.5.5 0 0 1 7 2.5V6l1 1h1l5.412-.992a.5.5 0 0 1 .355.915L13 8l1.631 1.224A.99.99 0 0 1 15 10Zm-9.5 0H3.225c-.504 0-.999-.127-1.44-.368L.74 9.062a.5.5 0 0 0-.48.877l1.269.693c.441.242.937.368 1.44.368H5.5a.5.5 0 0 0 0-1Z"/>
</svg>
